X:1
T:Miss Sitwell
T:Miss Sitwell
T:Nathaniel Gow
C:Nathaniel Gow
L:1/8
Q:1/8=232
M:4/4
K:Bb
V:1 treble 
V:1
|: D/C/ | B,F DF GC CD/C/ | B,F DB Fd Bf | dc B/c/d/B/ cC CD/C/ | B,F DB F2 F/E/D/C/ | %5
 B,F DF GC CD/C/ | B,F DB Fd Bf | dc B/c/d/B/ cC CD/E/ | FB DF B2 Bd/e/ | fb df gc cd/e/ | %10
 fb de fg db | fd bf gc cd/e/ | fb de f2 fd/e/ | fb df gc cd/e/ | fg/a/ ba gf ed | cB dB cC CD/E/ | %16
 FB FE/D/ F2 FB | B,F DF GC CD/C/ | B,F DB Fd Bf | dc B/c/d/B/ cC CD/C/ | B,F DB F2 F/E/D/C/ | %21
 B,F DF GC CD/C/ | B,F DB Fd Bf | dc B/c/d/B/ cC CD/E/ | FB DF B2 B :| %25

